lib/healthicons/icons/solid/objects/desktop_app.svg

<svg fill="none" height="48" viewBox="0 0 48 48" width="48" xmlns="http://www.w3.org/2000/svg"><path clip-rule="evenodd" d="m9.17647 8.5c-1.75432 0-3.17647 1.43908-3.17647 3.2143v19.2857c0 1.7752 1.42215 3.2143 3.17647 3.2143h10.58813v2.1429h-4.2353v2.1428h16.9412v-2.1428h-4.2352v-2.1429h10.5882c1.7543 0 3.1765-1.4391 3.1765-3.2143v-19.2857c0-1.77522-1.4222-3.2143-3.1765-3.2143zm12.70583 27.8572v-2.1429h4.2354v2.1429zm-8.4704-23.5714h2.1177v2.1428h2.1179v2.1429h-2.1179v2.1428h-2.1177v-2.1428h-2.1174v-2.1429h2.1174zm-2.118 10.7143c0-.5918.4741-1.0715 1.0589-1.0715h4.2353c.5847 0 1.0588.4797 1.0588 1.0715v4.2857c0 .5917-.4741 1.0714-1.0588 1.0714h-4.2353c-.5848 0-1.0589-.4797-1.0589-1.0714zm9.5295-9.6429c0-.5917.474-1.0714 1.0588-1.0714h4.2353c.5848 0 1.0588.4797 1.0588 1.0714v4.2857c0 .5917-.474 1.0714-1.0588 1.0714h-4.2353c-.5848 0-1.0588-.4797-1.0588-1.0714zm-.0002 9.6429c0-.5918.4741-1.0715 1.0589-1.0715h4.2353c.5847 0 1.0588.4797 1.0588 1.0715v4.2857c0 .5917-.4741 1.0714-1.0588 1.0714h-4.2353c-.5848 0-1.0589-.4797-1.0589-1.0714zm9.5295-9.6429c0-.5917.4741-1.0714 1.0589-1.0714h4.2353c.5847 0 1.0588.4797 1.0588 1.0714v4.2857c0 .5917-.4741 1.0714-1.0588 1.0714h-4.2353c-.5848 0-1.0589-.4797-1.0589-1.0714z" fill="#333" fill-rule="evenodd"/></svg>

<svg width="48" height="48" viewBox="0 0 48 48" fill="none" xmlns="http://www.w3.org/2000/svg">
<path fill-rule="evenodd" clip-rule="evenodd" d="M9.17647 8.5C7.42215 8.5 6 9.93908 6 11.7143V31C6 32.7752 7.42215 34.2143 9.17647 34.2143H19.7646V36.3572H15.5293V38.5H32.4705V36.3572H28.2353V34.2143H38.8235C40.5778 34.2143 42 32.7752 42 31V11.7143C42 9.93908 40.5778 8.5 38.8235 8.5H9.17647ZM21.8823 36.3572V34.2143H26.1177V36.3572H21.8823ZM13.4119 12.7858H15.5296V14.9286H17.6475V17.0715H15.5296V19.2143H13.4119V17.0715H11.2945L11.2945 14.9286H13.4119V12.7858ZM11.2939 23.5001C11.2939 22.9083 11.768 22.4286 12.3528 22.4286H16.5881C17.1728 22.4286 17.6469 22.9083 17.6469 23.5001V27.7858C17.6469 28.3775 17.1728 28.8572 16.5881 28.8572H12.3528C11.768 28.8572 11.2939 28.3775 11.2939 27.7858V23.5001ZM20.8234 13.8572C20.8234 13.2655 21.2974 12.7858 21.8822 12.7858H26.1175C26.7023 12.7858 27.1763 13.2655 27.1763 13.8572V18.1429C27.1763 18.7346 26.7023 19.2143 26.1175 19.2143H21.8822C21.2974 19.2143 20.8234 18.7346 20.8234 18.1429V13.8572ZM20.8232 23.5001C20.8232 22.9083 21.2973 22.4286 21.8821 22.4286H26.1174C26.7021 22.4286 27.1762 22.9083 27.1762 23.5001V27.7858C27.1762 28.3775 26.7021 28.8572 26.1174 28.8572H21.8821C21.2973 28.8572 20.8232 28.3775 20.8232 27.7858V23.5001ZM30.3527 13.8572C30.3527 13.2655 30.8268 12.7858 31.4116 12.7858H35.6469C36.2316 12.7858 36.7057 13.2655 36.7057 13.8572V18.1429C36.7057 18.7346 36.2316 19.2143 35.6469 19.2143H31.4116C30.8268 19.2143 30.3527 18.7346 30.3527 18.1429V13.8572Z" fill="#333333"/>
</svg>
